Papirus/16x16/mimetypes/application-dxf.svg

<svg xmlns="http://www.w3.org/2000/svg" width="16" height="16" version="1.1" viewBox="0 0 16 16">
 <path style="fill:#ec4646" d="m2.75 1c-0.4172 0-0.75 0.3328-0.75 0.75v13.5c0 0.417 0.3328 0.75 0.75 0.75h10.5c0.418 0 0.75-0.332 0.75-0.75v-9.25l-4.125-0.875-0.875-4.125z"/>
 <path style="fill:#f17575" d="m9 1v4.1667c0 0.4584 0.3749 0.8333 0.8333 0.8333h4.1667z"/>
 <path style="fill:#ffffff;stroke:#000000;stroke-width:0;stroke-linejoin:round" d="M 5.0000015,1 V 9.9999995 H 2.9999995 V 12.000001 H 2 V 13 h 0.9999995 v 2 h 2.000002 v 1 h 1 V 15 H 8.0000003 V 13 H 14 V 12.000001 H 8.0000003 V 9.9999995 H 6.0000015 V 1 Z m -1.000001,10 h 1.000001 1 0.9999983 V 12.000001 13 14 h -0.9999983 -1 -1.000001 v -1 -0.999999 z m 1.000001,1.000001 V 13 h 1 v -0.999999 z"/>
</svg>

<svg xmlns="http://www.w3.org/2000/svg" width="16" height="16" version="1.1" viewBox="0 0 16 16">
 <path style="fill:#ec4646" d="m2.75 1c-0.4172 0-0.75 0.3328-0.75 0.75v13.5c0 0.417 0.3328 0.75 0.75 0.75h10.5c0.418 0 0.75-0.332 0.75-0.75v-9.25l-4.125-0.875-0.875-4.125z"/>
 <path style="fill:#f17575" d="m9 1v4.1667c0 0.4584 0.3749 0.8333 0.8333 0.8333h4.1667z"/>
 <path style="fill:#ffffff" d="M 5,1 V 10 H 3 V 12 H 2 V 13 H 3 V 15 H 5 V 16 H 6 V 15 H 8 V 13 H 14 V 12 H 8 V 10 H 6 V 1 Z M 4,11 H 7 V 14 H 4 Z M 5,12 V 13 H 6 V 12 Z"/>
</svg>
